assets/img/icons/duotone-icons/Devices/Midi.svg

<?xml version="1.0" encoding="UTF-8"?>
<svg width="24px" height="24px" viewBox="0 0 24 24" version="1.1" xmlns="http://www.w3.org/2000/svg" xmlns:xlink="http://www.w3.org/1999/xlink">
    <!-- Generator: Sketch 52.2 (67145) - http://www.bohemiancoding.com/sketch -->
    <title>Stockholm-icons / Devices / Midi</title>
    <desc>Created with Sketch.</desc>
    <g id="Stockholm-icons-/-Devices-/-Midi" stroke="none" stroke-width="1" fill="none" fill-rule="evenodd">
        <rect id="bound" x="0" y="0" width="24" height="24"></rect>
        <path d="M4,6 L21,6 C21.5522847,6 22,6.44771525 22,7 L22,18 C22,18.5522847 21.5522847,19 21,19 L4,19 C3.44771525,19 3,18.5522847 3,18 L3,7 C3,6.44771525 3.44771525,6 4,6 Z" id="Combined-Shape" fill="#335EEA" opacity="0.3"></path>
        <rect id="Rectangle" fill="#335EEA" opacity="0.3" x="7" y="13" width="1" height="6"></rect>
        <rect id="Rectangle-Copy" fill="#335EEA" opacity="0.3" x="12" y="13" width="1" height="6"></rect>
        <rect id="Rectangle-Copy-2" fill="#335EEA" opacity="0.3" x="17" y="13" width="1" height="6"></rect>
        <path d="M6,6 L9,6 L9,12 C9,12.5522847 8.55228475,13 8,13 L7,13 C6.44771525,13 6,12.5522847 6,12 L6,6 Z" id="Rectangle-54" fill="#335EEA"></path>
        <path d="M11,6 L14,6 L14,12 C14,12.5522847 13.5522847,13 13,13 L12,13 C11.4477153,13 11,12.5522847 11,12 L11,6 Z" id="Rectangle-54-Copy" fill="#335EEA"></path>
        <path d="M16,6 L19,6 L19,12 C19,12.5522847 18.5522847,13 18,13 L17,13 C16.4477153,13 16,12.5522847 16,12 L16,6 Z" id="Rectangle-54-Copy-2" fill="#335EEA"></path>
    </g>
</svg>

<svg width="24" height="24" viewBox="0 0 24 24" xmlns="http://www.w3.org/2000/svg"><g fill="none" fill-rule="evenodd"><path d="M0 0h24v24H0z"/><path d="M4 6h17a1 1 0 011 1v11a1 1 0 01-1 1H4a1 1 0 01-1-1V7a1 1 0 011-1z" fill="#335EEA" opacity=".3"/><path fill="#335EEA" opacity=".3" d="M7 13h1v6H7zM12 13h1v6h-1zM17 13h1v6h-1z"/><path d="M6 6h3v6a1 1 0 01-1 1H7a1 1 0 01-1-1V6zM11 6h3v6a1 1 0 01-1 1h-1a1 1 0 01-1-1V6zM16 6h3v6a1 1 0 01-1 1h-1a1 1 0 01-1-1V6z" fill="#335EEA"/></g></svg>
